src/components/00-materials/images-raw/Employee Hire.svg

<svg width="96" height="96" viewBox="0 0 96 96" fill="none" xmlns="http://www.w3.org/2000/svg">
<path d="M49.29 28.7199C46.13 28.7199 43.09 26.1699 41.87 23.1799C39.87 27.4999 37.5 30.9299 31.49 30.9299H25.49V39.7899C25.49 47.1299 29.86 53.0799 37.49 53.0799C45.12 53.0799 49.49 47.1299 49.49 39.7899V28.7199H49.29Z" stroke="#00008F" stroke-width="2" stroke-linecap="round" stroke-linejoin="round"/>
<path d="M49.52 40.8999C51.2761 39.648 52.6953 37.9813 53.6514 36.0481C54.6075 34.115 55.0708 31.9754 55 29.8199V23.1799C55.004 22.6021 54.8941 22.0292 54.6766 21.4938C54.4591 20.9585 54.1383 20.4712 53.7325 20.0598C53.3267 19.6485 52.8439 19.3211 52.3115 19.0963C51.7792 18.8716 51.2078 18.7539 50.63 18.7499C49.2352 16.358 47.2297 14.3799 44.8189 13.0181C42.4081 11.6563 39.6786 10.9598 36.91 10.9999H35.61C33.5474 11.0117 31.5073 11.4298 29.6064 12.2304C27.7054 13.0309 25.9808 14.1982 24.5312 15.6655C23.0815 17.1328 21.9352 18.8713 21.1577 20.7818C20.3802 22.6924 19.9868 24.7373 20 26.7999V29.5199C20 33.7999 22.18 38.6799 25.46 40.8999M29.85 50.4199V56.3999L20.36 57.8699C16.9563 58.3422 13.8356 60.0218 11.5668 62.6027C9.29798 65.1836 8.03214 68.4938 8 71.9299V77.0999C8.0077 78.141 8.38014 79.1463 9.05251 79.9411C9.72489 80.7359 10.6546 81.2698 11.68 81.4499L23.78 83.7199C32.8467 85.4306 42.1533 85.4306 51.22 83.7199L63.32 81.4499C64.3454 81.2698 65.2751 80.7359 65.9475 79.9411C66.6199 79.1463 66.9923 78.141 67 77.0999V71.9299C66.9679 68.4938 65.702 65.1836 63.4332 62.6027C61.1644 60.0218 58.0437 58.3422 54.64 57.8699L45.15 56.3999V50.4199" stroke="#00008F" stroke-width="2" stroke-linecap="round" stroke-linejoin="round"/>
<path d="M37.5 62.91L45.15 56.4L48.55 56.95L46.24 67.47L37.5 62.91ZM37.5 62.91L28.76 67.47L26.45 56.95L29.85 56.4L37.5 62.91ZM33.13 65.26L35.31 69.68M35.31 69.68L33.01 84.86M35.31 69.68H39.69M41.87 65.26L39.69 69.68M39.69 69.68L41.99 84.86M20.02 77.27V82.98M54.98 77.27V82.98M88 32.52V37.52H78.5V47.02H73.5V37.52H64V32.52H73.5V23.02H78.5V32.52H88Z" stroke="#00008F" stroke-width="2" stroke-linecap="round" stroke-linejoin="round"/>
</svg>

<svg width="96" height="96" viewBox="0 0 96 96" fill="none" xmlns="http://www.w3.org/2000/svg"><path d="M49.29 28.72c-3.16 0-6.2-2.55-7.42-5.54-2 4.32-4.37 7.75-10.38 7.75h-6v8.86c0 7.34 4.37 13.29 12 13.29s12-5.95 12-13.29V28.72h-.2z" stroke="#00008F" stroke-width="2" stroke-linecap="round" stroke-linejoin="round"/><path d="M49.52 40.9A13.079 13.079 0 0055 29.82v-6.64a4.399 4.399 0 00-4.37-4.43A15.62 15.62 0 0036.91 11h-1.3A15.699 15.699 0 0020 26.8v2.72c0 4.28 2.18 9.16 5.46 11.38m4.39 9.52v5.98l-9.49 1.47A14.33 14.33 0 008 71.93v5.17a4.45 4.45 0 003.68 4.35l12.1 2.27a73.999 73.999 0 0027.44 0l12.1-2.27A4.45 4.45 0 0067 77.1v-5.17a14.33 14.33 0 00-12.36-14.06l-9.49-1.47v-5.98" stroke="#00008F" stroke-width="2" stroke-linecap="round" stroke-linejoin="round"/><path d="M37.5 62.91l7.65-6.51 3.4.55-2.31 10.52-8.74-4.56zm0 0l-8.74 4.56-2.31-10.52 3.4-.55 7.65 6.51zm-4.37 2.35l2.18 4.42m0 0l-2.3 15.18m2.3-15.18h4.38m2.18-4.42l-2.18 4.42m0 0l2.3 15.18m-21.97-7.59v5.71m34.96-5.71v5.71M88 32.52v5h-9.5v9.5h-5v-9.5H64v-5h9.5v-9.5h5v9.5H88z" stroke="#00008F" stroke-width="2" stroke-linecap="round" stroke-linejoin="round"/></svg>
